11 - Sutro.lrtemplate
s = {
	id = "C70277F8-6F2E-4E8F-A796-77C653AB2913",
	internalName = "Sutro LR4",
	title = "11 - Sutro",
	type = "Develop",
	value = {
		settings = {
			AutoLateralCA = 0,
			Blacks2012 = -20,
			BlueHue = 0,
			BlueSaturation = 0,
			CameraProfile = "Embedded",
			ChromaticAberrationB = 0,
			ChromaticAberrationR = 0,
			Clarity2012 = 12,
			ColorNoiseReduction = 0,
			ColorNoiseReductionDetail = 50,
			Contrast2012 = 20,
			ConvertToGrayscale = false,
			CropConstrainToWarp = 0,
			Defringe = 0,
			EnableCalibration = true,
			EnableColorAdjustments = true,
			EnableDetail = true,
			EnableEffects = true,
			EnableLensCorrections = true,
			EnableSplitToning = true,
			Exposure2012 = 0.28,
			GrainAmount = 0,
			GrainFrequency = 60,
			GrainSize = 64,
			GreenHue = 0,
			GreenSaturation = 0,
			Highlights2012 = -15,
			HueAdjustmentAqua = 30,
			HueAdjustmentBlue = 70,
			HueAdjustmentGreen = 0,
			HueAdjustmentMagenta = 80,
			HueAdjustmentOrange = 2,
			HueAdjustmentPurple = 0,
			HueAdjustmentRed = -100,
			HueAdjustmentYellow = 0,
			IncrementalTemperature = 17,
			IncrementalTint = 8,
			LensManualDistortionAmount = 0,
			LensProfileEnable = 0,
			LensProfileSetup = "LensDefaults",
			LuminanceAdjustmentAqua = -30,
			LuminanceAdjustmentBlue = -30,
			LuminanceAdjustmentGreen = 0,
			LuminanceAdjustmentMagenta = 0,
			LuminanceAdjustmentOrange = 0,
			LuminanceAdjustmentPurple = 0,
			LuminanceAdjustmentRed = 59,
			LuminanceAdjustmentYellow = 0,
			LuminanceNoiseReductionContrast = 0,
			LuminanceNoiseReductionDetail = 99,
			LuminanceSmoothing = 0,
			ParametricDarks = 14,
			ParametricHighlightSplit = 75,
			ParametricHighlights = 10,
			ParametricLights = 0,
			ParametricMidtoneSplit = 50,
			ParametricShadowSplit = 25,
			ParametricShadows = -7,
			PerspectiveHorizontal = 0,
			PerspectiveRotate = 0,
			PerspectiveScale = 100,
			PerspectiveVertical = 0,
			PostCropVignetteAmount = -30,
			PostCropVignetteFeather = 100,
			PostCropVignetteHighlightContrast = 0,
			PostCropVignetteMidpoint = 18,
			PostCropVignetteRoundness = 100,
			PostCropVignetteStyle = 1,
			ProcessVersion = "6.7",
			RedHue = -61,
			RedSaturation = 0,
			Saturation = -55,
			SaturationAdjustmentAqua = 0,
			SaturationAdjustmentBlue = 40,
			SaturationAdjustmentGreen = 0,
			SaturationAdjustmentMagenta = -20,
			SaturationAdjustmentOrange = 0,
			SaturationAdjustmentPurple = 5,
			SaturationAdjustmentRed = 30,
			SaturationAdjustmentYellow = 0,
			ShadowTint = 0,
			Shadows2012 = 15,
			SharpenDetail = 0,
			SharpenEdgeMasking = 0,
			SharpenRadius = 0.7,
			Sharpness = 61,
			SplitToningBalance = 0,
			SplitToningHighlightHue = 40,
			SplitToningHighlightSaturation = 20,
			SplitToningShadowHue = 57,
			SplitToningShadowSaturation = 5,
			ToneCurveName2012 = "Linear",
			ToneCurvePV2012 = {
				0,
				0,
				255,
				255,
			},
			ToneCurvePV2012Blue = {
				0,
				0,
				255,
				255,
			},
			ToneCurvePV2012Green = {
				0,
				0,
				255,
				255,
			},
			ToneCurvePV2012Red = {
				0,
				0,
				255,
				255,
			},
			Vibrance = 65,
			VignetteAmount = -30,
			VignetteMidpoint = 20,
			WhiteBalance = "Custom",
			Whites2012 = -100,
			orientation = "AB",
		},
		uuid = "07458BE4-9C0A-492A-B8CC-438049CB6FF5",
	},
	version = 0,
}
